public/assets/images/copy-icon-primary.svg

<svg width="19" height="20" viewBox="0 0 19 20" fill="none" xmlns="http://www.w3.org/2000/svg">
<path d="M13.0623 0.833984H3.56234C2.6915 0.833984 1.979 1.58398 1.979 2.50065V14.1673H3.56234V2.50065H13.0623V0.833984ZM15.4373 4.16732H6.729C5.85817 4.16732 5.14567 4.91732 5.14567 5.83398V17.5006C5.14567 18.4173 5.85817 19.1673 6.729 19.1673H15.4373C16.3082 19.1673 17.0207 18.4173 17.0207 17.5006V5.83398C17.0207 4.91732 16.3082 4.16732 15.4373 4.16732ZM15.4373 17.5006H6.729V5.83398H15.4373V17.5006Z" fill="var(--ion-color-primary)"/>
</svg>

<svg width="19" height="20" fill="none" xmlns="http://www.w3.org/2000/svg"><path d="M13.062.834h-9.5c-.87 0-1.583.75-1.583 1.667v11.666h1.583V2.501h9.5V.834zm2.375 3.333H6.73c-.87 0-1.583.75-1.583 1.667v11.667c0 .916.712 1.666 1.583 1.666h8.708c.871 0 1.584-.75 1.584-1.666V5.834c0-.917-.713-1.667-1.584-1.667zm0 13.334H6.73V5.834h8.708v11.667z" fill="var(--ion-color-primary)"/></svg>
